public/library/doodles-icon-light.svg

<svg width="181" height="53" viewBox="0 0 181 53" fill="none" xmlns="http://www.w3.org/2000/svg">
<mask id="mask0_4159_98" style="mask-type:luminance" maskUnits="userSpaceOnUse" x="0" y="0" width="181" height="53">
<path d="M180.461 0H0.765137V52.9834H180.461V0Z" fill="white"/>
</mask>
<g mask="url(#mask0_4159_98)">
<path d="M4.2905 10.7411C14.4548 8.55948 23.4417 9.66949 29.591 13.875C33.8968 16.8174 36.6643 21.0994 37.6026 26.2618C38.6718 32.1561 37.1991 38.0029 33.4608 42.725C28.5264 48.9592 20.1867 52.6957 10.5852 52.9829H10.4491L10.4397 52.978C8.05224 52.978 6.08217 51.0357 6.01178 48.5861C5.94612 46.2555 7.62079 44.283 9.83473 43.9718L7.32642 19.3541C6.9261 19.4289 6.52221 19.5096 6.11508 19.597C3.71821 20.1089 1.3635 18.5445 0.861615 16.0996C0.355083 13.6548 1.89366 11.2531 4.2905 10.7411ZM18.6027 42.4445C21.9168 41.2645 24.6607 39.4222 26.5517 37.0363C28.6671 34.362 29.469 31.2041 28.8733 27.9029C28.3761 25.1567 26.955 22.9654 24.652 21.3913C22.4551 19.8906 19.5735 19.0064 16.1885 18.7557L18.6027 42.4445Z" fill="white"/>
<path d="M48.9208 46.1512C41.2471 46.1512 35.0088 39.1803 35.0088 30.616C35.0088 22.052 41.2518 15.0811 48.9208 15.0811C56.5898 15.0811 62.8328 22.052 62.8328 30.616C62.8328 39.1803 56.5898 46.1512 48.9208 46.1512ZM48.9208 24.1332C46.144 24.1332 43.8831 27.0421 43.8831 30.616C43.8831 34.19 46.144 37.0989 48.9208 37.0989C51.6977 37.0989 53.9585 34.19 53.9585 30.616C53.9585 27.0421 51.6977 24.1332 48.9208 24.1332Z" fill="white"/>
<path d="M73.2036 48.7347C72.8611 48.7347 72.5189 48.7204 72.1811 48.687C64.8359 48.017 59.4838 40.3764 60.2485 31.6592C61.0129 22.9371 67.6078 16.392 74.9533 17.0618C82.2985 17.7316 87.6503 25.3724 86.8859 34.0895C86.5294 38.1325 84.9252 41.8596 82.3596 44.5818C79.8408 47.2564 76.5525 48.7396 73.2082 48.7396L73.2036 48.7347ZM73.9119 26.0661C71.609 26.0661 69.3856 28.9703 69.0808 32.4678C68.7617 36.0894 70.5769 39.4577 72.9645 39.673C74.3294 39.7975 75.4223 38.8692 75.957 38.3046C77.111 37.08 77.8707 35.2522 78.0443 33.281C78.3631 29.6593 76.5479 26.291 74.1605 26.0757C74.0808 26.0661 73.9963 26.0661 73.9119 26.0661Z" fill="white"/>
<path d="M109.86 2.43574C111.108 0.282745 114.204 -0.683706 116.347 0.531539C118.491 1.74682 119.232 4.43085 117.947 7.38758C117.37 8.72245 111.342 19.7698 113.214 41.673C113.425 44.1609 111.619 46.3565 109.18 46.5719C109.049 46.5815 108.917 46.5912 108.791 46.5912L108.786 46.5865C106.818 46.5865 105.102 45.2572 104.545 43.371C102.744 44.3283 100.709 44.8686 98.556 44.8686C91.2151 44.8686 85.2441 38.5964 85.2441 30.8885C85.2441 23.1809 91.2154 16.9086 98.556 16.9086C100.828 16.9086 102.969 17.5102 104.843 18.5688C105.862 11.6911 107.651 6.24529 109.86 2.43574ZM98.842 24.6547C96.3092 24.4394 94.0437 26.8601 93.7857 30.0467C93.5276 33.2329 95.3759 36.0033 97.9087 36.2137C100.442 36.4241 102.707 34.0078 102.965 30.8216C103.223 27.6352 101.375 24.8653 98.842 24.6547Z" fill="white"/>
<path d="M120.667 47.098C118.387 47.098 116.45 45.3182 116.253 42.9595C115.723 36.7062 114.245 22.2763 121.07 8.34877C122.299 5.84653 125.587 4.92313 127.763 6.07139C129.94 7.21965 131.446 9.76974 129.771 12.8414C123.603 24.1613 124.457 36.5005 124.916 41.9738C125.127 44.4617 123.495 46.8634 121.051 47.0787C120.92 47.0884 120.793 47.098 120.667 47.098Z" fill="white"/>
<path d="M141.235 46.4289C133.603 46.4289 127.778 40.2235 127.388 31.6738C127.102 25.454 129.41 21.6169 131.394 19.4974C133.965 16.7511 137.501 15.2393 141.352 15.2393C147.046 15.2393 153.275 19.416 153.472 25.631C153.51 26.7458 153.2 28.4251 151.531 30.0901C148.998 32.6162 142.998 34.7692 137.834 35.9176C138.392 37.2477 139.668 38.1901 140.93 38.3049C142.769 38.4773 144.56 37.4677 146.033 35.9176C147.708 34.1617 150.71 33.9463 152.436 35.6543C154.157 37.3625 153.604 39.4486 152.478 41.1279C149.94 44.9027 145.391 46.4385 141.239 46.4385L141.235 46.4289ZM141.511 23.3249C136.952 23.5402 135.906 28.3582 136.197 30.3677C138.636 29.7695 143.036 28.2338 145.447 26.8032C145.677 26.6645 145.794 26.387 145.714 26.1238C144.997 23.7077 142.323 23.3297 141.511 23.3297V23.3249Z" fill="white"/>
<path d="M165.963 52.1032C159.162 52.199 155.156 47.1371 154.5 43.8597C153.486 38.8121 160.119 36.4963 162.272 40.9075C162.98 42.3574 163.909 43.8454 166.24 43.4722C167.797 43.2233 168.28 41.6541 168.341 41.2903C168.562 39.9748 167.605 38.2283 165.738 37.1374C155.503 31.1332 155.067 25.0951 155.822 21.3393C157.056 15.2296 162.3 11.8853 168.51 12.134C174.739 12.3781 179.688 16.9711 180.424 23.3105C180.738 26.0041 179.007 28.0567 176.578 28.3676C174.148 28.6786 171.925 26.9227 171.62 24.4444C171.268 21.6072 169.087 21.2149 168.168 21.1766C167.661 21.1575 164.903 21.1623 164.556 23.9133C164.429 24.918 164.256 27.2672 169.326 30.4009C174.753 33.7502 176.906 38.2332 176.414 43.2472C175.921 48.2948 172.258 51.5147 167.15 52.0363C166.746 52.0792 166.348 52.0985 165.963 52.1032Z" fill="white"/>
</g>
</svg>

<svg xmlns="http://www.w3.org/2000/svg" width="181" height="53" fill="none" viewBox="0 0 181 53"><mask id="a" width="181" height="53" x="0" y="0" maskUnits="userSpaceOnUse" style="mask-type:luminance"><path fill="#fff" d="M180.461 0H.765v52.983h179.696z"/></mask><g fill="#fff" mask="url(#a)"><path d="M4.29 10.741C14.455 8.56 23.443 9.67 29.591 13.875c4.306 2.942 7.073 7.224 8.012 12.387 1.069 5.894-.404 11.74-4.142 16.463-4.935 6.234-13.274 9.97-22.876 10.258h-.136l-.01-.005c-2.387 0-4.357-1.942-4.427-4.392-.066-2.33 1.609-4.303 3.823-4.614L7.326 19.354q-.6.113-1.21.243c-2.398.512-4.752-1.053-5.254-3.497-.507-2.445 1.032-4.847 3.428-5.359m14.313 31.704c3.314-1.18 6.058-3.023 7.949-5.409 2.115-2.674 2.917-5.832 2.321-9.133-.497-2.746-1.918-4.938-4.221-6.512-2.197-1.5-5.079-2.385-8.463-2.635z"/><path d="M48.92 46.151c-7.673 0-13.911-6.97-13.911-15.535 0-8.564 6.243-15.535 13.912-15.535s13.912 6.971 13.912 15.535S56.59 46.151 48.92 46.151m0-22.018c-2.776 0-5.037 2.91-5.037 6.483 0 3.574 2.261 6.483 5.038 6.483s5.038-2.909 5.038-6.483-2.261-6.483-5.038-6.483"/><path d="M73.204 48.735q-.515 0-1.023-.048c-7.345-.67-12.697-8.31-11.932-17.028.764-8.722 7.359-15.267 14.704-14.597s12.697 8.31 11.933 17.028c-.357 4.042-1.96 7.77-4.526 10.492-2.52 2.674-5.808 4.158-9.152 4.158zm.708-22.669c-2.303 0-4.526 2.904-4.831 6.402-.32 3.621 1.496 6.99 3.883 7.205 1.365.124 2.458-.804 2.993-1.368 1.154-1.225 1.914-3.053 2.087-5.024.32-3.622-1.496-6.99-3.883-7.205-.08-.01-.165-.01-.25-.01"/><path d="M109.86 2.436c1.248-2.153 4.344-3.12 6.487-1.904 2.144 1.215 2.885 3.899 1.6 6.856-.577 1.334-6.605 12.382-4.733 34.285.211 2.488-1.595 4.683-4.034 4.899-.131.01-.263.02-.389.02l-.005-.005c-1.968 0-3.684-1.33-4.241-3.216a12.7 12.7 0 0 1-5.989 1.498c-7.34 0-13.312-6.273-13.312-13.98s5.971-13.98 13.312-13.98c2.272 0 4.413.601 6.287 1.66 1.019-6.878 2.808-12.324 5.017-16.133M98.842 24.655c-2.533-.216-4.798 2.205-5.056 5.392-.258 3.186 1.59 5.956 4.123 6.167s4.798-2.206 5.056-5.392-1.59-5.957-4.123-6.167"/><path d="M120.667 47.098c-2.28 0-4.217-1.78-4.414-4.139-.53-6.253-2.008-20.683 4.817-34.61 1.229-2.502 4.517-3.426 6.693-2.278 2.177 1.149 3.683 3.699 2.008 6.77-6.168 11.32-5.314 23.66-4.855 29.133.211 2.488-1.421 4.89-3.865 5.105q-.196.017-.384.019"/><path d="M141.235 46.429c-7.632 0-13.457-6.206-13.847-14.755-.286-6.22 2.022-10.057 4.006-12.177 2.571-2.746 6.107-4.258 9.958-4.258 5.694 0 11.923 4.177 12.12 10.392.038 1.115-.272 2.794-1.941 4.46-2.533 2.525-8.533 4.678-13.697 5.827.558 1.33 1.834 2.272 3.096 2.387 1.839.172 3.63-.837 5.103-2.387 1.675-1.756 4.677-1.972 6.403-.264 1.721 1.708 1.168 3.795.042 5.474-2.538 3.775-7.087 5.31-11.239 5.31zm.276-23.104c-4.559.215-5.605 5.033-5.314 7.043 2.439-.598 6.839-2.134 9.25-3.565a.594.594 0 0 0 .267-.68c-.717-2.415-3.391-2.793-4.203-2.793zM165.963 52.103c-6.801.096-10.807-4.966-11.463-8.243-1.014-5.048 5.619-7.364 7.772-2.953.708 1.45 1.637 2.938 3.968 2.565 1.557-.249 2.04-1.818 2.101-2.182.221-1.315-.736-3.062-2.603-4.153-10.235-6.004-10.671-12.042-9.916-15.798 1.234-6.11 6.478-9.454 12.688-9.205 6.229.244 11.178 4.837 11.914 11.177.314 2.693-1.417 4.746-3.846 5.057s-4.653-1.445-4.958-3.924c-.352-2.837-2.533-3.23-3.452-3.267-.507-.02-3.265-.015-3.612 2.736-.127 1.005-.3 3.354 4.77 6.488 5.427 3.35 7.58 7.832 7.088 12.846-.493 5.048-4.156 8.268-9.264 8.79q-.608.061-1.187.066"/></g></svg>
